X:3499
T:Country Farmers,The. BC.58
M:6/8
L:1/8
Q:120
S:Benjamin Cooke MS.circa 1770, F.Kidson Coll.
R:Jig
O:England
A:x
Z:vmp.John Bagnall
K:G
D | G2 G GDG | A2 A ABc | BAG AGF | G3 G2 |!|
d |. Bc.d efg |d4"*" ^c2 |. Bc.B BAG | ABA D3 |!
 B2 c dBG | c2 B A2 c | BGB AFA| G3-G2 |]
W:The c sharp is probably incorrect


